icons/solid/badge-check.svg

<svg width="24" height="24" viewBox="0 0 24 24" fill="none" xmlns="http://www.w3.org/2000/svg">
<path fill-rule="evenodd" clip-rule="evenodd" d="M10.0542 2.3444C11.1754 1.38886 12.8246 1.38886 13.9459 2.3444L15.2173 3.42794C15.3775 3.56443 15.5766 3.64692 15.7864 3.66366L17.4516 3.79654C18.9202 3.91373 20.0863 5.07986 20.2035 6.54839L20.3364 8.21363C20.3531 8.4234 20.4356 8.62254 20.5721 8.7827L21.6556 10.0542C22.6112 11.1754 22.6112 12.8246 21.6556 13.9459L20.5721 15.2173C20.4356 15.3775 20.3531 15.5766 20.3364 15.7864L20.2035 17.4517C20.0863 18.9202 18.9202 20.0863 17.4516 20.2035L15.7864 20.3364C15.5766 20.3531 15.3775 20.4356 15.2173 20.5721L13.9459 21.6556C12.8246 22.6112 11.1754 22.6112 10.0542 21.6556L8.78269 20.5721C8.62252 20.4356 8.42338 20.3531 8.21362 20.3364L6.54838 20.2035C5.07985 20.0863 3.91372 18.9202 3.79653 17.4517L3.66364 15.7864C3.6469 15.5766 3.56441 15.3775 3.42792 15.2173L2.34439 13.9459C1.38885 12.8246 1.38885 11.1754 2.34439 10.0542L3.42792 8.7827C3.56441 8.62254 3.6469 8.4234 3.66364 8.21363L3.79653 6.54839C3.91372 5.07986 5.07985 3.91373 6.54838 3.79654L8.21362 3.66366C8.42338 3.64692 8.62252 3.56443 8.78269 3.42794L10.0542 2.3444ZM15.7071 10.7071C16.0976 10.3166 16.0976 9.68342 15.7071 9.29289C15.3166 8.90237 14.6834 8.90237 14.2929 9.29289L11 12.5858L9.70711 11.2929C9.31658 10.9024 8.68342 10.9024 8.29289 11.2929C7.90237 11.6834 7.90237 12.3166 8.29289 12.7071L10.2929 14.7071C10.6834 15.0976 11.3166 15.0976 11.7071 14.7071L15.7071 10.7071Z" fill="currentColor"/>
</svg>

<svg width="24" height="24" fill="none" xmlns="http://www.w3.org/2000/svg"><path fill-rule="evenodd" clip-rule="evenodd" d="M10.054 2.344a3 3 0 013.892 0l1.271 1.084a1 1 0 00.57.236l1.665.133a3 3 0 012.751 2.751l.133 1.666a1 1 0 00.236.569l1.084 1.271a3 3 0 010 3.892l-1.084 1.271a1 1 0 00-.236.57l-.133 1.665a3 3 0 01-2.751 2.751l-1.666.133a1 1 0 00-.569.236l-1.271 1.084a3 3 0 01-3.892 0l-1.271-1.084a1 1 0 00-.57-.236l-1.665-.133a3 3 0 01-2.751-2.751l-.133-1.666a1 1 0 00-.236-.569l-1.084-1.271a3 3 0 010-3.892l1.084-1.271a1 1 0 00.236-.57l.133-1.665a3 3 0 012.751-2.751l1.666-.133a1 1 0 00.569-.236l1.271-1.084zm5.653 8.363a1 1 0 00-1.414-1.414L11 12.586l-1.293-1.293a1 1 0 00-1.414 1.414l2 2a1 1 0 001.414 0l4-4z" fill="currentColor"/></svg>
